X: 16466
T: Hag With The Money, The
R: jig
M: 6/8
K: Dmixolydian
Add A3|AGE G2G|Add A2A|GEE EDD|
Add A2A|AGE c3|ded dcA|GEE EDD:|
|:ABc d2d|d_ed d2c|ABc ddd|d_ed cAG|
ABc ddd|ded d2c|AGE [cG]E[cA]|GEE EDD:|

